X:371
T: Hongjun kaidao loushanguan
N: C1872
O: China, Guizhou Zunyi
S: II, 150, 1)]
R: Xiaodiao, Huadeng diao]
M: 2/4
L: 1/16
K: C
G2G2A4 | c2G2c4 |
G2c2c2A2 | G2A2c4 |
A2c2d2cA | d2cAd4 |
c2Acd2d2 | A2dcA4 |
c2Acd4 | A2dcA4 | G4z4

